packages/core/src/svgs/biso.svg

<svg width="24" height="24" viewBox="0 0 24 24" fill="none" xmlns="http://www.w3.org/2000/svg">
<g clip-path="url(#clip0_31_7018)">
<path d="M0 0H24V24H0V0Z" fill="url(#paint0_linear_31_7018)"/>
<path d="M15.6042 12.6385C15.9634 13.074 16.2473 13.5665 16.4442 14.0956C16.4442 14.1042 16.4399 14.1128 16.4313 14.117C16.2085 14.2585 15.8399 14.4728 15.7628 14.7428C15.7628 14.7556 15.7542 14.7642 15.7413 14.7728C15.4971 14.9442 15.4156 15.1585 15.6471 15.4028L15.7199 15.4885C15.7285 15.497 15.7285 15.5056 15.7199 15.5142C15.3856 15.7713 15.4799 16.2256 15.9171 16.2428H15.9985C16.0199 16.2513 16.0328 16.2642 16.0285 16.2856C16.0071 16.457 16.0371 16.5856 16.1228 16.6756C16.2813 16.847 16.4442 16.8042 16.6371 16.7356C16.6511 16.732 16.6659 16.732 16.6799 16.7356C16.7956 16.7528 16.9156 16.7356 17.0228 16.6885H17.0399C17.0449 16.6883 17.0499 16.6894 17.0544 16.6916C17.0589 16.6939 17.0628 16.6972 17.0656 16.7013V16.7142C17.0613 16.7999 17.0699 16.8856 17.0913 16.9713V16.9885C17.0913 16.997 17.0913 17.0013 17.0828 17.0056C16.0707 17.8163 14.8854 18.383 13.619 18.6618C12.3525 18.9405 11.0389 18.9237 9.77991 18.6128C9.76706 18.6128 9.76277 18.6042 9.76277 18.5913L9.80134 18.4328C9.80134 18.4199 9.80991 18.4156 9.81849 18.4199C10.5042 18.5485 11.3442 18.4028 12.0042 18.2013C12.0648 18.1807 12.1193 18.1454 12.1628 18.0985C12.1672 18.0939 12.1725 18.0904 12.1785 18.0882C12.1844 18.086 12.1907 18.0851 12.1971 18.0856C12.2956 18.0985 12.4028 18.1113 12.4928 18.0856C12.7713 18.017 12.8271 17.6913 12.6728 17.4728C12.6599 17.4556 12.6642 17.447 12.6813 17.4385C12.7371 17.4128 12.8013 17.3999 12.8485 17.3699C13.1699 17.1556 13.0242 16.7528 12.6985 16.6542C12.6813 16.6542 12.6771 16.6413 12.6856 16.6285C12.7799 16.457 12.8313 16.2428 12.6856 16.1013C12.4928 15.9299 12.2956 15.9213 12.0813 16.0885C12.0756 16.0936 12.0686 16.0971 12.0611 16.0986C12.0535 16.1001 12.0457 16.0996 12.0385 16.097C11.6117 16.0078 11.1683 16.0435 10.7613 16.1999C10.7564 16.1955 10.7533 16.1894 10.7528 16.1828L10.7313 15.6856C10.7314 15.6751 10.7292 15.6647 10.7251 15.6551C10.7209 15.6454 10.7149 15.6367 10.7073 15.6295C10.6996 15.6223 10.6906 15.6167 10.6808 15.6131C10.6709 15.6095 10.6604 15.6079 10.6499 15.6085H10.6328C10.5685 15.6128 10.5385 15.647 10.5428 15.707L10.5599 16.2513C10.5599 16.2623 10.5567 16.2731 10.5506 16.2822C10.5445 16.2914 10.5358 16.2985 10.5256 16.3028C10.1913 16.4399 9.88706 16.6285 9.61706 16.8685C9.60168 16.8824 9.59223 16.9018 9.59064 16.9225C9.58904 16.9432 9.59543 16.9637 9.60849 16.9799L9.61706 16.9885C9.65991 17.0399 9.70277 17.0442 9.7542 17.0013C10.3328 16.5085 11.1813 16.127 11.9485 16.2685C11.9913 16.277 12.0128 16.2985 12.0256 16.337C12.0728 16.5213 12.1885 16.6499 12.3642 16.7185C12.3899 16.7313 12.3985 16.7485 12.3813 16.7742C12.2871 16.9456 12.2956 17.117 12.3985 17.2885C12.4156 17.3185 12.4113 17.3313 12.3771 17.3399C12.0985 17.3742 12.0171 17.6828 12.0471 17.9228C12.0482 17.9312 12.0467 17.9398 12.0429 17.9475C12.0391 17.9551 12.0331 17.9614 12.0256 17.9656C11.9613 18.0085 11.8885 18.0428 11.8113 18.0599C11.1042 18.2399 9.0942 18.6428 8.96563 17.4256C8.89706 16.7828 9.15849 16.0542 9.3042 15.4285C9.37706 15.1113 9.5742 14.5799 9.97706 14.627C10.1871 14.6528 10.3799 14.8542 10.5042 15.0213C10.5153 15.0362 10.5317 15.0463 10.5501 15.0495C10.5684 15.0527 10.5873 15.0487 10.6028 15.0385L10.6156 15.0299C10.6267 15.0219 10.6361 15.0117 10.6433 14.9999C10.6504 14.9882 10.6551 14.9751 10.6571 14.9616C10.6591 14.948 10.6583 14.9341 10.6549 14.9209C10.6514 14.9076 10.6454 14.8951 10.6371 14.8842C10.5385 14.747 10.4228 14.6313 10.2813 14.537C10.2471 14.5156 10.2513 14.5028 10.2899 14.4985C10.5724 14.4811 10.851 14.4234 11.1171 14.327C11.1268 14.3189 11.1337 14.3079 11.1368 14.2956C11.1399 14.2832 11.139 14.2702 11.1342 14.2585L11.1256 14.2413C11.1042 14.1985 11.0656 14.177 11.0142 14.1899C10.6628 14.2842 9.82277 14.4942 9.55706 14.1385C9.43277 13.9799 9.44563 13.7442 9.53563 13.5813C9.53764 13.5741 9.54228 13.5679 9.54862 13.564C9.55496 13.56 9.56256 13.5586 9.56991 13.5599C10.0285 13.637 10.4999 13.5985 10.9585 13.4913C11.0099 13.4785 11.0356 13.4485 11.0228 13.3885V13.3713C11.0211 13.3625 11.0175 13.3541 11.0123 13.3467C11.0072 13.3393 11.0005 13.3331 10.9928 13.3285C10.9799 13.3207 10.9648 13.3177 10.9499 13.3199C10.4722 13.4334 9.97633 13.448 9.49277 13.3628C9.04706 13.2599 8.81991 12.9342 8.63563 12.5485C8.36526 11.9482 8.1612 11.3202 8.02706 10.6756L7.67134 9.0899C7.63277 8.9099 7.57706 8.73419 7.5042 8.56705C7.4993 8.55318 7.4993 8.53805 7.5042 8.52419L7.70563 7.84704C7.7082 7.8386 7.70901 7.82972 7.70801 7.82095C7.707 7.81218 7.7042 7.80371 7.69978 7.79607C7.69535 7.78843 7.6894 7.78179 7.6823 7.77655C7.6752 7.77131 7.66709 7.76759 7.65849 7.76562L7.62849 7.76133C7.57277 7.74847 7.53849 7.7699 7.52134 7.82562C7.42277 8.19847 7.30706 8.72562 6.99849 8.99562C6.64277 9.31276 6.22706 9.4199 5.75563 9.31704C5.69217 9.30456 5.6313 9.28138 5.57563 9.24847C5.5738 9.24686 5.57234 9.24489 5.57134 9.24267C5.57034 9.24045 5.56982 9.23805 5.56982 9.23562C5.56982 9.23318 5.57034 9.23078 5.57134 9.22856C5.57234 9.22635 5.5738 9.22437 5.57563 9.22276C5.96134 8.94847 6.28277 8.72133 6.49706 8.29705C6.66849 7.96276 6.96849 7.24705 7.37134 7.2599C7.384 7.26086 7.3967 7.25885 7.40844 7.25403C7.42017 7.24921 7.43062 7.24171 7.43895 7.23214C7.44728 7.22256 7.45325 7.21117 7.45639 7.19888C7.45954 7.18659 7.45976 7.17373 7.45706 7.16133C7.45293 7.14481 7.44398 7.12989 7.43134 7.11847C7.4137 7.10084 7.39182 7.08804 7.36781 7.08128C7.34379 7.07453 7.31845 7.07406 7.2942 7.0799C7.28908 7.08133 7.28362 7.0808 7.27887 7.07843C7.27412 7.07605 7.27042 7.07199 7.26849 7.06705V7.05419C7.32713 6.76678 7.45678 6.49863 7.64563 6.27419C7.64985 6.26821 7.65586 6.26374 7.6628 6.26142C7.66974 6.25911 7.67724 6.25908 7.6842 6.26133L7.72277 6.2699C7.78706 6.28705 7.8342 6.24847 7.8342 6.18419C7.83488 6.1762 7.83368 6.16817 7.83071 6.16073C7.82773 6.15329 7.82306 6.14664 7.81706 6.14133C7.58991 5.92704 7.46134 5.56276 7.59849 5.25847C7.60278 5.24896 7.6104 5.24134 7.61991 5.23705C7.66706 5.21562 7.68849 5.23705 7.67991 5.28847C7.66706 5.41705 7.6542 5.76419 7.76134 5.8499C7.77681 5.86269 7.79665 5.86895 7.81665 5.86735C7.83666 5.86575 7.85525 5.85641 7.86849 5.84133C7.87844 5.82913 7.88442 5.81417 7.88563 5.79847C7.92849 5.51562 8.21563 5.27562 8.47277 5.15133C8.48513 5.14534 8.49893 5.14297 8.51258 5.14449C8.52623 5.14601 8.53917 5.15135 8.54991 5.1599C8.57991 5.1899 8.59277 5.22419 8.57563 5.26705C8.54563 5.35705 8.33991 5.50276 8.26277 5.56276C8.1342 5.65704 8.06563 5.78562 8.05706 5.93562C8.05622 5.94887 8.05806 5.96215 8.06248 5.97467C8.0669 5.98719 8.0738 5.99869 8.08277 6.00847C8.0922 6.01822 8.10354 6.02591 8.11607 6.03107C8.12861 6.03623 8.14207 6.03875 8.15563 6.03847H8.18134C8.19849 6.03847 8.21134 6.03419 8.2242 6.02133C8.2366 6.01034 8.24428 5.99499 8.24563 5.97847C8.24563 5.86276 8.27563 5.78562 8.33991 5.75133C9.22706 5.25847 10.2256 5.28847 10.9156 6.09847C11.0185 6.21847 11.1085 6.31276 11.1899 6.38562C11.6913 6.82276 12.1756 7.28562 12.6642 7.73562C12.6701 7.74088 12.6744 7.74767 12.6767 7.75523C12.6789 7.7628 12.6791 7.77084 12.6771 7.77847L12.4628 8.45562C12.4456 8.51562 12.4628 8.58419 12.5185 8.6699C12.7269 8.9898 13.0483 9.21935 13.4185 9.31276C13.8256 9.41562 14.2885 9.3299 14.5071 8.95276C14.5088 8.94895 14.5118 8.94591 14.5156 8.94419H14.5242C14.7042 9.05133 15.0642 9.32133 15.0685 9.54419C15.0771 9.87419 14.6399 10.1185 14.3528 10.1699C13.0413 10.4185 11.6271 10.5213 10.3242 10.2899L10.0413 10.2128C8.84134 9.85276 8.60563 11.0356 9.03849 11.8499C9.1785 12.12 9.37692 12.3555 9.61933 12.5394C9.86174 12.7232 10.1421 12.8508 10.4399 12.9128C10.5728 12.9428 10.7742 12.9685 11.0399 12.9813C11.9142 13.0242 12.8185 12.8785 13.6499 12.5956C14.1856 12.4156 14.8242 12.0985 15.1885 11.6442C15.191 11.6411 15.1945 11.639 15.1984 11.6382C15.2023 11.6374 15.2064 11.638 15.2099 11.6399C15.213 11.6406 15.2159 11.6422 15.2182 11.6445C15.2205 11.6468 15.2221 11.6496 15.2228 11.6528C15.2913 12.107 14.6656 12.6042 14.3056 12.797C14.2909 12.8052 14.2794 12.8182 14.2732 12.8338C14.2669 12.8494 14.2663 12.8667 14.2713 12.8828L14.2756 12.8956C14.3013 12.9556 14.3399 12.9728 14.3999 12.9428C14.7813 12.7456 15.5699 12.1028 15.3985 11.597C15.3958 11.5905 15.3951 11.5833 15.3967 11.5764C15.3982 11.5695 15.4018 11.5632 15.4071 11.5585C15.4119 11.5548 15.4176 11.5524 15.4236 11.5517C15.4296 11.5509 15.4358 11.5518 15.4413 11.5542C15.6385 11.6228 15.8956 11.8285 15.8999 12.0685C15.8999 12.2828 15.7285 12.4542 15.5999 12.6042C15.5956 12.6128 15.5956 12.6256 15.6042 12.6385Z" fill="white"/>
<path d="M14.2156 9.02152C13.7442 9.3001 13.2042 9.10724 12.8399 8.75152C12.7756 8.68724 12.6514 8.54152 12.6814 8.44724C12.7242 8.30581 12.8185 7.99295 12.9771 7.51295C13.0285 7.35438 13.0028 7.18724 12.9514 7.00295C12.8528 6.63867 12.7199 6.28295 12.7456 5.89295C12.7628 5.67867 12.9256 5.45581 13.1614 5.48152C13.7314 5.54152 14.7471 6.50152 14.8414 7.06295C14.8714 7.23438 14.8585 7.43581 14.8071 7.67152C14.7428 7.97152 14.4814 8.86295 14.2156 9.02152Z" fill="#FFD800"/>
<path d="M11.9743 5.77309C11.9957 5.76452 12 5.77309 11.9871 5.79023C11.8586 5.97023 11.5714 6.12452 11.3786 6.24023C11.3681 6.24757 11.3553 6.25076 11.3426 6.24918C11.3299 6.24759 11.3183 6.24135 11.31 6.23166L10.9114 5.78594C10.8943 5.76452 10.8986 5.75594 10.9243 5.76452C11.2671 5.84594 11.6228 5.89309 11.9743 5.77309ZM12.1714 11.8502C12.5143 11.7088 13.2728 11.4774 13.5771 11.7645C13.5857 11.7731 13.59 11.7859 13.5943 11.8031C13.6114 11.9488 13.5 11.9659 13.38 11.9617C12.7371 11.9317 12.3514 12.2059 12.06 12.7588C12.0568 12.7652 12.0519 12.7706 12.0459 12.7744C12.0398 12.7782 12.0328 12.7802 12.0257 12.7802L11.0828 12.8017C11.0799 12.8026 11.0767 12.8027 11.0737 12.8019C11.0706 12.8012 11.0679 12.7996 11.0657 12.7974C11.0635 12.7952 11.0619 12.7924 11.0612 12.7894C11.0604 12.7864 11.0605 12.7832 11.0614 12.7802V12.7717C11.3357 12.3474 11.7043 12.0431 12.1714 11.8502ZM16.9586 13.6588C16.8 13.7402 16.7443 13.8259 16.6286 13.9459C16.6258 13.9484 16.6226 13.9503 16.6191 13.9515C16.6156 13.9526 16.6119 13.953 16.6083 13.9526C16.6046 13.9522 16.6011 13.951 16.5979 13.9491C16.5948 13.9472 16.5921 13.9447 16.59 13.9417C16.41 13.4959 16.1786 13.0845 15.8957 12.6988C15.8871 12.6859 15.8914 12.6774 15.9 12.6731C16.5214 12.3474 16.8857 13.1574 16.9714 13.6288C16.9714 13.6417 16.9714 13.6545 16.9586 13.6588ZM16.8043 16.5688C16.803 16.5696 16.8015 16.5699 16.8 16.5699C16.7985 16.5699 16.797 16.5696 16.7957 16.5688V16.5602C16.8043 16.1874 16.5728 16.0888 16.2514 16.0588C16.2343 16.0588 16.23 16.0502 16.2343 16.0374C16.29 15.7974 16.1786 15.6988 16.0371 15.5402C16.0243 15.5231 16.0243 15.5102 16.0371 15.4974C16.094 15.4602 16.1407 15.4093 16.1729 15.3494C16.2051 15.2895 16.2218 15.2225 16.2214 15.1545C16.2214 15.0131 16.1657 14.7517 16.0071 14.7388C15.9343 14.7302 15.9257 14.7045 15.9771 14.6617C16.1571 14.5031 16.3371 14.3659 16.5257 14.2502C16.6886 14.1517 16.7828 14.0359 16.9028 13.8945C17.0314 13.7531 17.46 13.7445 17.6143 13.7531C18.1971 13.7788 18.4843 14.2717 18.42 14.8159C18.3853 15.1312 18.2586 15.4293 18.0557 15.6731C17.7975 15.9753 17.4939 16.2356 17.1557 16.4445C17.0443 16.5174 16.9286 16.5474 16.8043 16.5688Z" fill="white"/>
<path d="M15.8871 15.4287C15.5271 15.313 15.5314 14.8973 15.9471 14.8459C15.9667 14.8435 15.9866 14.8477 16.0037 14.8577C16.0207 14.8678 16.034 14.8832 16.0414 14.9016C16.1271 15.0902 16.1614 15.3302 15.9299 15.4287C15.9161 15.434 15.9009 15.434 15.8871 15.4287ZM15.8614 15.5787C16.0028 15.6473 16.1614 15.8059 16.1399 15.9773C16.0799 16.3673 15.2528 15.9902 15.8228 15.5787C15.8289 15.5739 15.8364 15.5712 15.8442 15.5712C15.852 15.5712 15.8596 15.5739 15.8656 15.5787H15.8614ZM12.5099 16.1144C12.7242 16.2087 12.6899 16.4273 12.5656 16.5859C12.4671 16.7144 12.3214 16.5687 12.2442 16.5002C12.1414 16.4059 12.1328 16.2987 12.1585 16.1702C12.1585 16.1573 12.1671 16.1444 12.1799 16.1359C12.2828 16.0673 12.3942 16.0587 12.5099 16.1144ZM16.2428 16.1787C16.4442 16.1873 16.6885 16.2516 16.6799 16.4959C16.6714 16.6244 16.4656 16.6887 16.3542 16.6759C16.1185 16.6502 16.0842 16.3844 16.1828 16.213C16.1892 16.2018 16.1986 16.1927 16.21 16.1866C16.2214 16.1806 16.2342 16.1778 16.2471 16.1787H16.2428ZM12.7114 17.3102L12.6085 17.3444C12.6009 17.3465 12.5928 17.3463 12.5853 17.344C12.5777 17.3418 12.5709 17.3375 12.5656 17.3316C12.4799 17.2459 12.4328 17.1344 12.4285 17.0016C12.4285 16.9073 12.5014 16.7444 12.6256 16.7616C12.9342 16.8044 13.0499 17.1816 12.7114 17.3102ZM12.6428 17.7387C12.6342 18.0002 12.4028 18.0087 12.2142 17.9616C12.2032 17.9606 12.1928 17.9558 12.185 17.948C12.1772 17.9401 12.1723 17.9298 12.1714 17.9187C12.1542 17.7987 12.1628 17.593 12.2742 17.5073C12.4885 17.3444 12.6471 17.5287 12.6428 17.7387Z" fill="white"/>
</g>
<defs>
<linearGradient id="paint0_linear_31_7018" x1="4.46571" y1="4.16143" x2="29.2071" y2="32.58" gradientUnits="userSpaceOnUse">
<stop stop-color="#1A1E21"/>
<stop offset="1" stop-color="#06060A"/>
</linearGradient>
<clipPath id="clip0_31_7018">
<rect width="24" height="24" fill="white"/>
</clipPath>
</defs>
</svg>

<svg xmlns="http://www.w3.org/2000/svg" width="24" height="24" fill="none" viewBox="0 0 24 24"><g clip-path="url(#a)"><path fill="url(#b)" d="M0 0h24v24H0z"/><path fill="#fff" d="M15.604 12.639c.36.435.643.928.84 1.457a.02.02 0 0 1-.013.021c-.223.141-.591.356-.668.626q-.001.018-.022.03c-.244.171-.325.386-.094.63l.073.085q.012.014 0 .026c-.334.257-.24.712.197.729H16c.02.008.034.021.03.043q-.034.256.094.39c.158.171.321.128.514.06a.1.1 0 0 1 .043 0c.116.017.236 0 .343-.047h.017a.03.03 0 0 1 .026.012v.013a.9.9 0 0 0 .025.257v.017c0 .009 0 .013-.008.018a8.45 8.45 0 0 1-7.303 1.607q-.018-.001-.017-.022l.038-.158c0-.013.009-.017.017-.013.686.128 1.526-.017 2.186-.219a.4.4 0 0 0 .159-.102.043.043 0 0 1 .034-.013.8.8 0 0 0 .296 0c.278-.069.334-.395.18-.613q-.019-.024.008-.034c.056-.026.12-.04.168-.07.32-.213.175-.616-.15-.715-.018 0-.022-.013-.013-.026.094-.171.145-.385 0-.527-.193-.171-.39-.18-.605-.012a.04.04 0 0 1-.042.008 2.27 2.27 0 0 0-1.278.103.03.03 0 0 1-.008-.017l-.022-.497a.08.08 0 0 0-.024-.056.08.08 0 0 0-.057-.022h-.017q-.096.008-.09.099l.017.544a.06.06 0 0 1-.034.052 3.2 3.2 0 0 0-.909.566.08.08 0 0 0-.009.11l.01.01q.061.076.136.012c.579-.492 1.427-.874 2.194-.733.043.009.065.03.078.069a.53.53 0 0 0 .338.381q.04.018.017.056a.49.49 0 0 0 .018.514c.017.03.012.043-.022.052-.279.034-.36.343-.33.583a.04.04 0 0 1-.021.043.6.6 0 0 1-.215.094c-.707.18-2.717.583-2.845-.634-.069-.643.192-1.372.338-1.997.073-.318.27-.85.673-.802.21.026.403.227.527.394a.073.073 0 0 0 .099.018l.013-.01a.103.103 0 0 0 .021-.145 1.4 1.4 0 0 0-.356-.347q-.05-.031.009-.039c.282-.017.561-.075.827-.171a.06.06 0 0 0 .017-.069l-.008-.017c-.022-.043-.06-.064-.112-.051-.351.094-1.191.304-1.457-.051-.124-.16-.111-.395-.021-.558a.03.03 0 0 1 .034-.021c.458.077.93.038 1.389-.069.05-.012.077-.043.064-.102v-.018a.06.06 0 0 0-.03-.043.06.06 0 0 0-.043-.008 3.6 3.6 0 0 1-1.457.043c-.446-.103-.673-.429-.857-.814a9 9 0 0 1-.609-1.873L7.671 9.09a2.8 2.8 0 0 0-.167-.523.06.06 0 0 1 0-.043l.202-.677a.064.064 0 0 0-.048-.081l-.03-.005q-.082-.02-.107.065c-.098.372-.214.9-.523 1.17a1.34 1.34 0 0 1-1.242.321.6.6 0 0 1-.18-.069.017.017 0 0 1 0-.025c.385-.275.707-.502.921-.926.171-.334.471-1.05.874-1.037a.08.08 0 0 0 .086-.099.1.1 0 0 0-.026-.043.15.15 0 0 0-.137-.038.02.02 0 0 1-.026-.013v-.013c.06-.287.189-.555.378-.78a.034.034 0 0 1 .038-.013l.039.009c.064.017.111-.022.111-.086a.05.05 0 0 0-.017-.043c-.227-.214-.356-.578-.219-.883a.04.04 0 0 1 .022-.021c.047-.021.068 0 .06.051-.013.129-.026.476.081.562a.077.077 0 0 0 .107-.009.1.1 0 0 0 .018-.043c.042-.282.33-.522.587-.647a.07.07 0 0 1 .077.009c.03.03.043.064.026.107-.03.09-.236.236-.313.296a.48.48 0 0 0-.206.373.1.1 0 0 0 .026.072.1.1 0 0 0 .073.03h.025q.024.001.043-.017a.06.06 0 0 0 .022-.043q-.001-.174.094-.227c.887-.493 1.886-.463 2.576.347q.152.18.274.288c.501.437.986.9 1.474 1.35a.04.04 0 0 1 .013.042l-.214.678c-.017.06 0 .128.056.214.208.32.53.55.9.643.407.103.87.017 1.088-.36a.02.02 0 0 1 .009-.009h.008c.18.107.54.377.545.6.008.33-.43.574-.716.626-1.312.248-2.726.351-4.029.12l-.283-.077c-1.2-.36-1.435.823-1.003 1.637a2.05 2.05 0 0 0 1.402 1.063c.133.03.334.056.6.068a7.1 7.1 0 0 0 2.61-.385c.536-.18 1.174-.498 1.538-.952a.02.02 0 0 1 .022-.004.02.02 0 0 1 .013.013c.068.454-.557.951-.917 1.144a.07.07 0 0 0-.035.086l.005.013q.036.091.124.047c.381-.197 1.17-.84.999-1.346a.034.034 0 0 1 .008-.038.03.03 0 0 1 .034-.005c.197.069.455.274.459.515 0 .214-.171.385-.3.535q-.007.015.004.035"/><path fill="#FFD800" d="M14.216 9.022c-.472.278-1.012.085-1.376-.27-.064-.065-.189-.21-.159-.305.043-.141.138-.454.296-.934.051-.159.026-.326-.026-.51-.098-.364-.231-.72-.205-1.11.017-.214.18-.437.415-.411.57.06 1.586 1.02 1.68 1.58q.044.257-.034.61c-.064.3-.326 1.191-.591 1.35"/><path fill="#fff" d="M11.974 5.773q.033-.01.013.017c-.128.18-.416.335-.608.45a.05.05 0 0 1-.069-.008l-.399-.446q-.025-.033.013-.021c.343.08.699.128 1.05.008m.197 6.077c.343-.141 1.102-.373 1.406-.085q.012.011.017.038c.017.146-.094.163-.214.159-.643-.03-1.029.244-1.32.797a.038.038 0 0 1-.034.021l-.943.022h-.01l-.007-.005-.005-.008v-.017a2.36 2.36 0 0 1 1.11-.922m4.788 1.809c-.159.081-.215.167-.33.287l-.01.005q-.005.003-.01.002a.03.03 0 0 1-.019-.011 5.7 5.7 0 0 0-.694-1.243q-.011-.02.004-.026c.621-.326.986.484 1.071.956 0 .013 0 .026-.012.03m-.155 2.91h-.008v-.009c.008-.373-.223-.471-.545-.501q-.024-.001-.017-.022c.056-.24-.055-.338-.197-.497q-.02-.024 0-.043a.4.4 0 0 0 .184-.342c0-.142-.055-.403-.214-.416q-.108-.014-.03-.077c.18-.159.36-.296.549-.412.163-.098.257-.214.377-.355.128-.142.557-.15.711-.142.583.026.87.519.806 1.063a1.6 1.6 0 0 1-.364.857 3.8 3.8 0 0 1-.9.772.9.9 0 0 1-.352.124"/><path fill="#fff" d="M15.887 15.429c-.36-.116-.356-.532.06-.583a.09.09 0 0 1 .094.056c.086.188.12.428-.111.527a.06.06 0 0 1-.043 0m-.026.15c.142.068.3.227.279.398-.06.39-.887.013-.317-.398a.035.035 0 0 1 .043 0zm-3.351.535c.214.095.18.313.056.472-.099.128-.245-.017-.322-.086-.103-.094-.111-.201-.085-.33q.001-.02.02-.034a.32.32 0 0 1 .33-.022m3.733.065c.201.008.446.073.437.317-.009.128-.214.193-.326.18-.235-.026-.27-.292-.171-.463a.07.07 0 0 1 .064-.034zM12.71 17.31l-.103.034a.04.04 0 0 1-.023 0 .04.04 0 0 1-.02-.012.47.47 0 0 1-.136-.33c0-.095.072-.258.197-.24.308.042.424.42.085.548m-.068.429c-.009.261-.24.27-.429.223a.05.05 0 0 1-.043-.043c-.017-.12-.008-.326.103-.412.215-.163.373.022.369.232"/></g><defs><linearGradient id="b" x1="4.466" x2="29.207" y1="4.161" y2="32.58" gradientUnits="userSpaceOnUse"><stop stop-color="#1A1E21"/><stop offset="1" stop-color="#06060A"/></linearGradient><clipPath id="a"><path fill="#fff" d="M0 0h24v24H0z"/></clipPath></defs></svg>
